X: 40133
T: Tie The Ribbons
R: reel
M: 4/4
K: Edorian
|:BGEF GBAG|FDAD BDAD|GFEF GFGB|1 dcdf e2 dc:|2 dcdf e2ef||
|:gfef gbag|fede fga2|1 gfef gbag|fedf e2ef:|2 bgaf gfe2|dcdf e2dc|

